mimetypes/scalable/inode-symlink.svg

<?xml version="1.0" standalone="no"?><!-- Generator: Gravit.io --><svg xmlns="http://www.w3.org/2000/svg" xmlns:xlink="http://www.w3.org/1999/xlink" style="isolation:isolate" viewBox="0 0 256 256" width="256" height="256"><switch><g><g id="application-mimetype"><g opacity="0.2"><path d=" M 78.924321 15.500025 C 43.627596 15.500025 39.829708 19.125398 40.002695 54.49353 L 40.002695 127.500014 L 40.002695 200.506441 C 39.829708 235.874573 43.627596 239.500004 78.924321 239.500004 L 177.081083 239.500004 C 212.377805 239.500004 216.002702 235.875035 216.002702 200.506441 L 216.002702 127.500014 L 216.002702 54.49353 C 216.002702 19.124994 212.377805 15.500025 177.081083 15.500025 L 78.924321 15.500025 Z " id="path1163" fill="none" vector-effect="non-scaling-stroke" stroke-width="4" stroke="rgb(0,0,0)" stroke-linejoin="miter" stroke-linecap="butt" stroke-miterlimit="4"/></g><defs><filter id="pWLAfErvyGno2Tn2RxzG1Wg5dMJqCvgs" x="-200%" y="-200%" width="400%" height="400%" filterUnits="objectBoundingBox" color-interpolation-filters="sRGB"><feGaussianBlur xmlns="http://www.w3.org/2000/svg" stdDeviation="2.120027"/></filter></defs><g opacity="0.1" filter="url(#pWLAfErvyGno2Tn2RxzG1Wg5dMJqCvgs)"><path d=" M 78.924315 16.5 C 43.627592 16.5 39.82971 20.125416 40.002699 55.493531 L 40.002699 128.5 L 40.002699 201.50647 C 39.82971 236.874573 43.627592 240.500001 78.924315 240.500001 L 177.081083 240.500001 C 212.377806 240.500001 215.084425 236.863068 216.002699 201.50647 L 216.002699 128.5 L 216.002699 55.493531 C 216.002699 20.124997 212.377806 16.5 177.081083 16.5 L 78.924315 16.5 Z " id="shadow" fill="rgb(0,0,0)"/></g><defs><filter id="v2U8fZ8GN0X737AM9r4aEU9zb3MAiBIR" x="-200%" y="-200%" width="400%" height="400%" filterUnits="objectBoundingBox" color-interpolation-filters="sRGB"><feGaussianBlur xmlns="http://www.w3.org/2000/svg" stdDeviation="8.4801079"/></filter></defs><g opacity="0.3" filter="url(#v2U8fZ8GN0X737AM9r4aEU9zb3MAiBIR)"><linearGradient id="_lgradient_331" x1="-0.0681490711308741" y1="0.03125" x2="0.9537210324437329" y2="1.0531201035746074" gradientTransform="matrix(176.005396,0,0,224,39.997303,16.5)" gradientUnits="userSpaceOnUse"><stop offset="0%" stop-opacity="0.58823532" style="stop-color:rgb(0,0,0)"/><stop offset="88%" stop-opacity="0" style="stop-color:rgb(0,0,0)"/><stop offset="100%" stop-opacity="1" style="stop-color:rgb(0,0,0)"/></linearGradient><path d=" M 78.924315 16.5 C 43.627592 16.5 39.82971 20.125416 40.002699 55.493531 L 40.002699 128.5 L 40.002699 201.50647 C 39.82971 236.874573 43.627592 240.500001 78.924315 240.500001 L 177.081083 240.500001 C 212.377806 240.500001 216.002699 236.875001 216.002699 201.50647 L 216.002699 128.5 L 216.002699 55.493531 C 216.002699 20.124997 212.377806 16.5 177.081083 16.5 L 78.924315 16.5 Z " id="blur" fill="url(#_lgradient_331)"/></g><linearGradient id="_lgradient_332" x1="0.5128975552295578" y1="1.191393749925565" x2="0.5128975552295579" y2="-0.21314917458906102" gradientTransform="matrix(176.005402,0,0,223.999979,39.9973,15.500025)" gradientUnits="userSpaceOnUse"><stop offset="0%" stop-opacity="1" style="stop-color:rgb(188,25,56)"/><stop offset="48.271722%" stop-opacity="1" style="stop-color:rgb(236,60,80)"/><stop offset="100%" stop-opacity="1" style="stop-color:rgb(218,22,54)"/></linearGradient><path d=" M 78.924321 15.500025 C 43.627596 15.500025 39.829708 19.125398 40.002695 54.49353 L 40.002695 127.500014 L 40.002695 200.506441 C 39.829708 235.874573 43.627596 239.500004 78.924321 239.500004 L 177.081083 239.500004 C 212.377805 239.500004 216.002702 235.875035 216.002702 200.506441 L 216.002702 127.500014 L 216.002702 54.49353 C 216.002702 19.124994 212.377805 15.500025 177.081083 15.500025 L 78.924321 15.500025 Z " id="shape" fill="url(#_lgradient_332)"/><g opacity="0.6"><path d=" M 78.924573 15.500025 C 43.627848 15.500025 39.829708 19.126032 40.002695 54.494165 L 40.002695 56.494138 C 39.829708 21.126005 43.627848 17.499998 78.924573 17.499998 L 177.080824 17.499998 C 212.377545 17.499998 216.002702 21.125601 216.002702 56.494138 L 216.002702 54.494165 C 216.002702 19.125571 212.377545 15.500025 177.080824 15.500025 L 78.924573 15.500025 Z " id="highlight" fill="rgb(255,255,255)"/></g><g opacity="0.1"><path d=" M 128.002691 15.500025 L 128.002691 239.500004 L 177.080824 239.500004 C 212.377531 239.500004 215.084421 235.863501 216.002702 200.506787 L 216.002702 127.500014 L 216.002702 54.493184 C 216.002702 19.124648 212.377531 15.500025 177.080824 15.500025 L 128.002691 15.500025 Z " id="right highlight" fill="rgb(255,255,255)"/></g><g opacity="0.2"><path d=" M 156.002703 239.500004 L 216.002702 179.500005 L 216.002702 201.983857 C 215.950394 235.97965 212.200019 239.500004 177.828601 239.500004 L 156.002703 239.500004 Z " id="clip" fill="rgb(255,255,255)"/></g></g><path d=" M 153.961945 167.830867 L 128.084567 141.953488 L 102.207188 168 L 88 153.623679 L 113.877378 127.915433 L 88.169133 102.038055 L 101.868922 88.169133 L 127.7463 114.046512 L 153.623679 88 L 168 102.376321 L 141.953488 128.2537 L 167.830867 153.961945 L 153.961945 167.830867 Z " id="inode" fill="rgb(255,255,255)"/></g><foreignObject requiredExtensions="http://ns.gravit.io/"><gravitDesigner:gravitElementRef xmlns:gravitDesigner="http://ns.gravit.io/" xlink:href="#fbGsDzxZoVY4zwlDX8LuKw7yueQNJbpA"/></foreignObject></switch><gravitDesigner:gravitGraphicSource xmlns:gravitDesigner="http://ns.gravit.io/" id="fbGsDzxZoVY4zwlDX8LuKw7yueQNJbpA" version="1"><![CDATA[eMKcw41aaW/Do2bCksO+KwtlwrFfw4ZxeB8NLMKwwqR4wooiw4VLEsKpJFjDsMK+D8OxEEkNw7LDn8KXwpJlw4vDqsOpw65xTzLCm8OYECzCvWQVwqvDqsKtw6fCqcKqV8O+w7vDon8Wwp8WwrUTBcKLwqfDhX8uPsO9w7zDt8OrQsOUVH3DvcKwUjtdPC94ecOVBsO+w6JTw5fDtMOBw5PCosOuw5rDucKGwp8XwrDCs8OJNcK9FsKdwq3DvMOfw7NNP8OML3I9FcK9OgpMwodSwoBEwoVHw6jCrMOrRyfCrcOVIj7DtmI4w58iw4zCr8OQb8OBN8OJX8Kffl7CsMKiXGjDm8ONw4EDw55UEcKCwqHDiyc8w43CosK0PizClcOtw5TDr8Krw7V2w7RRwrXDjMOadmPDjcK3XEzDiwkvw5fCnMKMdMKyw7fCqnQUwozDrsKqViFgWcO7HAQ3e8Ofw7XCrCDClnfDixbDncOAdMK8EVzDi27DrnLCh8OKT8Ovw57CnMKWW13DswbDkgfDo0gJwo/CrsOFUMKeeg7Dtwg3wqkcXDM3b8KuJsOsw4N1w7bDqsONNTAGw4lnw5nCmyrCn03DiMO9SSBHITXDt1hFQ8OmwrZyen55IlNqw6vDrcOVwps3w5fDgMK8Sl5Vw6EywqYlD8Kqw5xRKMOtbsOlBE3Ct3XCpxgAdcKLw6rCuGXCv8OuwpsDwrzCt17CrcOCIzR6wpPCvMKoWgbCu1TCqx8cw6zDjybCtwxMwrXDtWoKIydnwospDcKpwoB1w64LIh8Cw6PDjcKqwqtkccK6O3hdwogfYgzCoip0w6xEwoc7woFbw4VLUgsZU8OyGMKdasORB8OIem/DncOlwrLCh20uwoTCtcKnKcOwwrbCoE8AclbCt8KodFB0wrQdwoYDH2drw5fCvnlzwpU8worDt23CvgYmfkg+wofDjUYHwpHDkcONCcKcZGpLwrQ1IcOqwqp+LjY0w6/CuMKYd8Ozw6YawphXw4lff31aNEHDmMKNw53DolPDmcOnw7nDtcKTU3pxw5VcwpJ8wr7DmjXDocO8Bn7DhnESwoVwBMODABQhYQR9AsOmw58vLT9jGAliIAHDoAQOw47Cv08/EhjDtgzCkgjCjGEQwoTDgSDCicOPakvCpwhuAANBDMKew63DusOfwrbCq8Oqw4Unw6AZwprDn8Onw44UXCx4woVhUnbDq8KXwqXDt8OwDMKTPFfDn8KuXXTDlMKzH8KLw6UPP1/CjAN+wr3CrMKcZi3CocKTwrfDgW9PL0Juw5XDuEHDsyjDpg7Ci0/DsDN5w73DgcKBwpcfHMK7XMOIwr3Ci0jDn3XDl8Obwop8w7EJw7nDh8OHw7w2O8O0X8OzworDh8KKVH8ww4oIO8KTw4fCmHXCtkAAwq7Cjm3CgsKVesKgwp4Se8Oxw5ssG8KEwqE4c8OJQsKXTDk4wpDDjcOeaMKiwpFfwqLCjsKvScOESEfChxM1woHCngIsXg3DvjYJdR7CqQ0UwpXCs8Oiax4ALgTDo8KZwpk3w6vDtnhce8KcWcKgPMOHM8OWCMKTR0jCi8K5W0rCocOCT8K9FsOdJC8pRVFMwqQ1DMOBw53Cs8Kzw4oPeMKnS2LDrQVnZxsZw54ZLRUswp/DksOYUMKWw71gw59SCmbDsVArIMKqw4rDnsKrwrrDqMK+Z2fDkHHCpsOZeBFTc8Kjw6XCmVlZT8O1wrHChhDDh2fDt8KYw6TCuHfCuWNEw4N3wrjChy1yXk3DoMKWwoc1CcKIw5HDhMKTOnjClFQ2w5xvKmBQw4nCmzdXE07DksKJYsK1G0DCrsKBWVJUwqbCvQXDhsKxZcO/RMORDMKLY8Kcw5cJw7lSPMKIZidLPT7CnMOlw650w7PDpiUwN8OJKzXDqibDvcKZKjh1VmDDosKrMSseCwQHw5PCjsKjdApywoTCjgPCsCJSblbDkRDCk8K9ScOeHMKsNMOsw4FBNsKZY0nCtVzDrxtlwrbDs3DCqMKxQ8KTw6HDqcO4IAUIQ8KcX2FLwpvCpQYXw73Cm8KDV1XDg0PCjCliwrPCn8OiwrVcUcOlw6ZwXsOtfMKtwojCtG3DhDDCg07DhMKnwqN6wpfDgx/CthnDrsOFHWXCn8OhfMOcwrfDsCHDn8KNRsKxw5wBw6zDmsK2wqwOb8KMw7rDpsONVcOyJ8OywqfCt21+CcOMQ8OywrHDisOUwqh0MApaAk19wr0ccizCrHVbTUfDk0bCiiDCv3nDsxLCmMOXw6TDuyAJAcOPw6gNwpsAdGEdFMK7wpLDkBfCln8Ew5EZw404DMKAAMKEwoEQRMKAw7DDk8KPEMOwwoxcEcKOw4EIwojDjlzChcOcecKowo0dwr8aw57CsxDDuMOHwrHDkD9jHsOww7nDlX4AJQEUBcKhDzPDjwPDgcOdWEjDr0LCjWPCnSwuBcOdScOLTRBywqjDo8OywqddYMKuYMKnwoRfWcOow5XCr8O5bcOgdcKPPsK5ecOfwrDDl8O1ecK5wpkfw71Mw4I4BsODw6TChcOUMRx8fcKWXMKIw7zCkcOPLSFWZMKwb8OFVcORZsKqwrdOVC9WI8K+Wi1+w7tXWcKMV8OdOsKxwo7DqsK+w57CsUpuKhzCthkGw654w5rCncO9wpLDlsOSw6Y7WMKsw5Adw4ofdMODwrZjb8OiZhfDhgRkeMKFw5M3WMKpRMK0w78dLGbDicOcFjjDl8Kyw4LCswYowqQnw6bDrMKKw6HDpmjCtQTCjgTCusKefsKNw4UMG17Cq8KrPcOFwrfCosK1JsOQPDF7wobDs2gMHsKYdSTDk8Oyd8KwGEgQI2kXZcOOw67CoMO1w47DsMKtw5o2w6UOF2Rdw5VQWHLCvsKDw4UIMsODGnvCt8KcLBvDm8KRS8KqXjE0w6/DjcOtHsKZwpjCpsKGGMOfw4FiCcOhcsKEwoMuSSFgBx5mSsKTwoHDj3vDi8KNRgDDo1kPwrpZw7VCWsOLw6FbLMKWw7fCvMK+c1nCi8Ovw4Rlw5HCncKTw4LDiMO7wrTCtToxw55Wwroew4lfYzHCvMOkdRPDn0TCsF7DoBTDqsOGw5VWHFhbYcKZwoomHMOZwqDCv8KDw4XDtjnCnsKkw6DDsUhKwqnCn8OWKcOvwoEuwqDDrULDlCRiPcKPCsOxL8OKYhfDlMK+w6cww7jDgxzDtsOvwqbCpsKnb1LDpcO6wofCv8O/wrJof8K5PA5BUBDCgVDClERQwoIACMOiw6nCl0U4w45XfgTCngHCjAAREsOAQRAGZsK4woHCl0vDky8XPwEYwoTDkMO5w6PDpcOGwp9nVcO1ZXXDvsOsw41/f8K5wpvDtMOLYl7Cq8KuEsKzcghGYWg2w6x2w7vDs8O1WV/ClXjCuxHDvMOGXRdaw7xlw5Fcw4xFw6ddw4IvZMKJw4A4AcKBMMOxw5tbwpfDmFYaYVTCucKFw4DCpcK0cmPCjcKxw5LDgBIkwr9fNSttw6fCl8O/Cj/Cg8OkM8KOAijCjMOOMSIxCEXCsMOXwqcdwrTClsKxWsKfSg/CnsKGwoFLTMOvwqbDlVnDsFfClsK4BgLCu8OZfsKUwqHDv3HDmMKNRMKaw4TDjUIzw48UwpoqwrrCkXJzwpVPw5fDvlHCqiTDkcKHXhnDuiPDg27Cn2jDlGHCnUvDuMKBw5YQdmvDplbChArDkMORMVYKdEoKZcOxw7FhN8OYwrtLK8OZKEBHF2TCqzrCg1jDoQdlwrvCqsOSw6TDmMOXwoHDu8K1YcKXHwLDvMKoeyojwpd7w45fw7V7GBgCwqRJw7FkOhDCuMKzXXx8w5jDrTAUw4wPAMK2DTDDrFBiwqTCqQPDjGDCqxHCoBbDtGjCnMKzw4XDh8KHXXQbw7LCgcONwoF8DCgCwrbCqcOPWsKyDjLDicOCwpbDusKBw4vDs1fChsO+w4jCsEswHMKJdsK9wp4BKWRvNHbDh8K1FAB4wok7wqnCsB3DucOFw6LDo8ODLsOTHARqw5k1CcOCRcOKXlbDt8KBw5krwoDDhAnDqTZvNi7Ds8K1YcOXw5Zlw43Cs8OKw5USOMKkSW3DpEdbEhN6fhw/N8OPwol7Wnx8w5gNw50aw59rVA/CrcOqw5EGw4XDkykgHFZMN8KCK03DpcKqw5otw77CgsODw67DnGTDlsKXE8Knw5/Dl1fCvidLYMKmf8KIwoQuwpzCiUHDmCtXw47DtAZCBMKJwqMoCsONwrUEw4XCiVfCqgRnw5NAeG7DpcOmEjLCkyzDtk3DksKcG8KNwqfCmVZRw6w9w4HDncO5EiHCoMOZYQh6LwLDgcOYEwY8EcOAwpdEHsKYEwJnw6XDkMOTXMK9wr7DhMKew6AzwooDw7hcw6IgDCcRwoLDhMKwO33DliXChMKXYTvCrMKbwoPCg8KMwrsNwotVwpB1wqQywoJrDsKpTsK3D0N2AXFZw4LCtcKNB8KcOArClW3DtMK0wpzCg8KGw7txaUnCncOWwpofG8Kywq90EcOsw4TDpMKew4rCk2BJGA/CnylccUhyUMKNXcKzwqpbdsKOw6rCvjvCsMKqw7E1wprCicKrHcOXwpFhw5fCjcKnLC3DucKaNzA8w5bDlgTCgEnDgC4ywprDr8KgwpnCoMOKN8Oaai0rcAQPDQHCuMKrTMKmw6HChsKSCcOfwrHCkWPDtx00U8OKJcKhBcOhRHYRwojDkDEEwoLDpm5vHsOzw4PDjsKzw5pmw4jCvsKDZkR4JwHDucOIeMK7wrkxKCtPwqnCqcKWT2VhwovCnMOVYR9Mw5/CpMKZw74hw4bDqcOBw7fDuQ7ClcKWwpsaAzfCisK9woQPB3sVUsKpM8KWw4QUwqF/HsKgT8OJa2fDswbDrsOOwokWf8OwIcOWwozDkMKnw5vDq8OXPzPDvSnDicO4wrzDtsKzwoB8OiwrdcKIbcK7wrHCvDUCw4hgJhzCgcKAOcOkZTfDgcK3woQZw4gvw5Z+w6x9UcKoD8KZwphrZhpBc8KbwovClhzDhkt+w5pMMmHClgbCgGbCr8OVw7LCighXw7vCrMO2e8Obw4hnw6/DtcKFwpXCosK1wozCrHrDnioCC8OXa2klccKVacKVw6lJwonDk27Dvx5cw4bCiXtTdXXDsCDCqMOvHBzDj8OkDsKbB8KQw57CsTZgCW3CmxHCqmVPBcKXwoXChAHDsRHCu1l1dcOwVcOywqLDqsOsw47DoMKqH1QZbcKxT8OpwrRgwqMww5/CtMOmacOVA8KJw6NQOsKbHQ8cwqfCgsKvwrMfNcKDwqt+wqfDqsKKwojDtsOBw4HCocOiJ8KYw55Hw6ZGwpssNx3CjsKrwqYTwqkzw6/DlksOw5bClsOee3Alw6bDncOBwpdaw7wQdhVJRcOUw6wgwrTCmQwlNMKVwoPCkMOTfcKyw4k7QwHDpC5CHmrDsXAPw7vDlcOBw4daw5wuJUvDjcOlw5o9akNVwo/ChsOQIhXCg8Klw6syw6rCpMKtwr/CjW9WXR3DvMKrw5TDojjCicOifH51w69BwovDvcOhwqDDvScnP8OAw63DjHkuG8OXGQskf8OXw4lPbCICI3HCg0fCrMKbVcOKw4XCmTV2O1bDplUcwpbCqcOUwosfwrjCoWs7dcKtSUcHOCRHwoTDpMO3NcKTw4wTwrtQw5rDsMK0OsOkw5LDh8K4AW1Fw77Cs3TCiMOmw6bDo8OswoI9csOYw6nCpcK/bDlvHjY8a2Rawrs3acKawrjCpsORVcOuwrEIwonCvSNxwqs+YFVZwqnDqsOAwrJEw5MbSR3Dnk92D8OswrfDtj3DvR7DpSRabcOoeMKoe25VVlXCmE4MwpIzBU0Awo7CiHUrw7bCtUfChsKGLxYvw6B9w7HDmsODJ24swos0QVbDpMOqZMOSwpNQw6xUH8OxwocYwqhPFMKMw58yWcOtw4dEwovDgm/DtsOIDcOdbcKZM8KOF2HCuw3CmHTDlHvCocOTKsKCw47DvGQewpMww6IuwpdCw69xwpnDh8K2wqgDCsK8wrXChMOgdMKcZ8OUw5UGw7HCmsOVdsKyw5fDlVkTwozDt8K4wqzCv8KNw4tBS8ORwpjDsHV8w4jCg8KNwolBZ8Kjw6tgwrgVIMOdGsOXwopow57CvMK5BsOmwq/CgsOLw6bCgsOJw7/DuCI6w7/CiBPDmT8Twp3Dm8KwQcKNwobDkXnCmUcFwoQ9w4PDhMKSYmBGLSjDhlHDgmXDv8KAw47ChnZXwogAwoZHJ1c0WSPDkMKjGirCgMOAwq3ChMO0w4RuwpjDsDsaw5fDh8O5wrgKOBfCt0s8woUhV8Kuw6DCrMO2YsOAZU/CqWnDuQJTwobDucK7w4bDtQEaw51Gw4XCjcOUCEQ7w57CinRBwp3Cg8K1U8KbNjDCpsKgw6sGLsOww5DCuDZ3aFxrw6tjw6PDisKqwq7DnMOXRlZqAwpEwqHCkAchSMODYHY0w4rDtcOAL8K5W17CjsOKZ8KNw6sXwrDDj8Opw5jCiC0DDy/CpMK6MTMPMMKWw5PClg44w5ZjFEnDhcKgw6/DgH4BGcK0KhA8dMOYRcOhCkvDq3IrScKuw5DCn8OJwoTCjSbDpMO1wrvCrsKPYMKfYXLCqHbDi1E5MwEeSsOgwpbCn0LDkSLDsQrDqsKIwoIcw6HCv1TDo8OqVl1XFV/ChsOcH8Ofw4XDvsO/Qm45wpTCslHCkUjDpydQaDDCmFvDlEbChcO7S8OlKMO7w6fDtcKcHsOvIcKHw64jLgglYMK1HsOTHsOgKsKxwqcnwofCrsK0c8OiwrvDh8OAw5p8DHLDi8O9NsO7LEnCp3jCtVFTaH3DoBBIOnHDu2HCmRPDlsO2w4zCl8OnYxLDgEp7T8KjwoTDnCd3OUw0wpzDvGB0w75hNMOVwqxJwofCkcKAdRTDhltRwoAjfijDrnJHRX3Cl8OJCsKqwo3Cu3rCmgA2NsOLTm0sZMKVw6nDnT4BwrssMnnDsnXCmsKDw71DwqrCncOcw41bJh9KBMO/w4zDtFZbwqoYwpcpw640wo/CtwPDoibDqnRwworCk8KswrERwrTDhMOow6rCrQ1Gw4M7wr7DvsOkEsOiw6VJw73CpyYxfktiw6TDpcOgHER/Vw4Xw4cCwqhgacK3w6/CtcKTZsKHw4nDnsKjIhZnw6bDlsOuwpwrw7w6eMOIYQkPUsOnw6QlesOsw6kIwqrCgDJCShN3OBpBw5NRwrzDnVzDh8OIf2/DuMKdwrrDjhPDj8OpwpLCqsO8wrFIworCoMKbXg7CvV5NwozCgcKRM8K3IMOPSMKUI8KuKMKewq3DlsKbwooNwqI2PsKJw47DkcKOPwYzw48Ew6IBw6jDviZ7b1/DmkgQw53CisKDShA7LsKFfD8HV8KVwoDDjsKmw6h9QGzDscOxdMONcWk3wpTDg3RGwo3Cu1wpw5EEccOoCMK+w65GPcKVwpF1wrFMJcONwohXBMKmZMOnE3LClUPCrMKqG8OAw53DrsOdw7MAw4vDrGHDjCASUsONwrh+HwAtJMOLwrsTw6UXAMOdwpbCm8ObKWjDpw3Dg8OffsOqw5XDtk0uNsKWwo3CpcKQwrXCvU7CqcOQOB3CmxPCgxRAVC89VjwrQXzClcObNsORPHXDlcOUwo54wpNbwqJKw6BQIm9xSn7DlMOtaVfCqjvDiMKdw5s2wr3CqlEgWMK9w5TDiMO5cQM+w6HDrl3DjjhKw5Zqw6REw7/CjMOvw71zwqXDuyxiwokVWMO2wpsNw4xPw4jDi8K/f1kiw5ENwrDDqcKEw7LCm1zDhcOvw4l6ZTk+JmEmwrHCgsOzw4zCj8KXw7Vaw59rwoTDrMOGE3fClcKrBcKqHFAlPMOcw6XCjMO+w4RlPMKSUzwtw4sjwohLw47DmsOPwpzDpnDDlMKUw4AOw7DDsSrCh3NsPEAVE8Oew6PCmWTCgE8PSAcuwpltQcO3wrXCjcKQO8Oow6hDU3nCnsK0OMKHwq9yccOQw7oDScOXw6/DvEPDhWEvwoBGFsOwaWPDkRDCpcO0wpsJRHYUwrgRVsO0wo5+w5nDt2DDlMKyw4s+w6zDrsO7wqDCm8KewpLCpcK8w6wvwpNlw5JRwrsUbCZXH8ObUUlZw57Dt8OpwqvDnMOww5PDlh/ChsKNw79uw79IewfCnDATw4LDisOAJ2rDjRYswpvCkBgzwqsSCibDksOYw7kwASLDjxBEw4AQSQAkDsKhIMO6AsOAf1wlYMO0GcKHcQLCgVEUw4RJDH3CmsOfPCMoSsKiCEHDogTCiEJ3w7glZcOlw7/DvkPDpsKvwp0+woXDi8ODPsKybcKfAlhVGcOSHDIpP8OrbFhoGcKVJHTDv8KBwowmfMKfwp/DtcOzHsOsBcKIVMKaQ13CqHrDoVUFw4HDqsO6Bi3CtlfCrT9cKG4Uw7bCoiTDuCnCk8O0KsKmST7CgG3Cs8KoXsO1cMKiLlvDq8OSW8OOwrQKwqHDmMKlw5rCvMO8wq0uw5/Cj11Cw6l6w5kXw6zCncOXwq/DpMO/FhbDlcKJwoLDvwAXwr/DvR/Cr8KNG8Oe]]></gravitDesigner:gravitGraphicSource></svg>

<svg xmlns="http://www.w3.org/2000/svg" xmlns:xlink="http://www.w3.org/1999/xlink" style="isolation:isolate" width="256" height="256"><switch><g><path d="M78.924 15.5c-35.296 0-39.094 3.625-38.921 38.994v146.012c-.173 35.369 3.625 38.994 38.921 38.994h98.157c35.297 0 38.922-3.625 38.922-38.994V54.494c0-35.369-3.625-38.994-38.922-38.994H78.924z" fill="none" vector-effect="non-scaling-stroke" stroke-width="4" stroke="#000" opacity=".2"/><defs><filter id="a" x="-200%" y="-200%" width="400%" height="400%" filterUnits="objectBoundingBox" color-interpolation-filters="sRGB"><feGaussianBlur xmlns="http://www.w3.org/2000/svg" stdDeviation="2.12"/></filter></defs><path d="M78.924 16.5c-35.296 0-39.094 3.625-38.921 38.994v146.012c-.173 35.369 3.625 38.994 38.921 38.994h98.157c35.297 0 38.003-3.637 38.922-38.994V55.494c0-35.369-3.625-38.994-38.922-38.994H78.924z" opacity=".1" filter="url(#a)"/><defs><filter id="b" x="-200%" y="-200%" width="400%" height="400%" filterUnits="objectBoundingBox" color-interpolation-filters="sRGB"><feGaussianBlur xmlns="http://www.w3.org/2000/svg" stdDeviation="8.48"/></filter></defs><g opacity=".3" filter="url(#b)"><linearGradient id="c" x1="-.068" y1=".031" x2=".954" y2="1.053" gradientTransform="matrix(176.0054 0 0 224 39.997 16.5)" gradientUnits="userSpaceOnUse"><stop offset="0%" stop-opacity=".588"/><stop offset="88%" stop-opacity="0"/><stop offset="100%"/></linearGradient><path d="M78.924 16.5c-35.296 0-39.094 3.625-38.921 38.994v146.012c-.173 35.369 3.625 38.994 38.921 38.994h98.157c35.297 0 38.922-3.625 38.922-38.994V55.494c0-35.369-3.625-38.994-38.922-38.994H78.924z" fill="url(#c)"/></g><linearGradient id="d" x1=".513" y1="1.191" x2=".513" y2="-.213" gradientTransform="matrix(176.0054 0 0 223.99998 39.997 15.5)" gradientUnits="userSpaceOnUse"><stop offset="0%" stop-color="#bc1938"/><stop offset="48.272%" stop-color="#ec3c50"/><stop offset="100%" stop-color="#da1636"/></linearGradient><path d="M78.924 15.5c-35.296 0-39.094 3.625-38.921 38.994v146.012c-.173 35.369 3.625 38.994 38.921 38.994h98.157c35.297 0 38.922-3.625 38.922-38.994V54.494c0-35.369-3.625-38.994-38.922-38.994H78.924z" fill="url(#d)"/><path d="M78.925 15.5c-35.297 0-39.095 3.626-38.922 38.994v2C39.83 21.126 43.628 17.5 78.925 17.5h98.156c35.297 0 38.922 3.626 38.922 38.994v-2c0-35.368-3.625-38.994-38.922-38.994H78.925z" fill="#FFF" opacity=".6"/><path d="M128.003 15.5v224h49.078c35.297 0 38.003-3.636 38.922-38.993V54.493c0-35.368-3.625-38.993-38.922-38.993h-49.078z" fill="#FFF" opacity=".1"/><path d="M156.003 239.5l60-60v22.484c-.053 33.996-3.803 37.516-38.174 37.516h-21.826z" fill="#FFF" opacity=".2"/><path d="M153.962 167.83l-25.877-25.877L102.207 168 88 153.624l25.877-25.709-25.708-25.877 13.7-13.869 25.877 25.878L153.624 88 168 102.376l-26.047 25.878 25.878 25.708-13.87 13.869z" fill="#FFF"/></g><foreignObject requiredExtensions="http://ns.gravit.io/"> </foreignObject></switch> </svg>
